apps/wedsite/public/images/foliage.svg

<svg width="78" height="78" viewBox="0 0 78 78" fill="none" xmlns="http://www.w3.org/2000/svg">
<path d="M22.9417 53.1088L22.4829 52.9941C19.3859 52.3059 18.3535 51.7324 18.2388 51.5029C18.0094 51.0441 17.4359 50.9294 17.0917 51.1588C16.6329 51.3882 16.5182 51.9618 16.7476 52.3059C18.3535 55.2882 21.9094 60.9088 27.1859 63.7765C30.627 65.6118 34.527 66.0706 36.8211 65.6118C36.9359 69.5118 37.0506 73.2971 37.28 76.6235C37.28 77.0824 37.7388 77.4265 38.0829 77.4265C38.5417 77.4265 38.8859 77.0824 38.8859 76.6235C38.8859 76.2794 38.8859 75.9353 38.8859 75.5912C39.1153 75.1324 40.4917 72.15 40.8359 71.3471C46.1123 71.8059 52.077 71.4618 56.4359 68.4794C57.3535 67.7912 58.1564 67.1029 59.0741 66.4147C60.1064 65.4971 61.0241 64.5794 62.1712 64.0059C62.5153 63.7765 62.63 63.4324 62.63 63.0882C62.5153 62.7441 62.2859 62.4 61.9417 62.4C58.8447 61.9412 55.7476 61.4824 52.4212 61.9412C49.3241 62.4 46.5712 63.7765 44.6212 65.7265C43.7035 66.7588 42.9006 67.7912 41.9829 68.5941C43.3594 65.1529 44.6212 61.5971 45.7682 57.8118C56.8947 58.7294 58.5006 54.0265 61.7123 52.1912C62.4006 51.8471 62.2859 50.7 61.4829 50.5853C59.0741 50.2412 56.6653 49.7824 54.1417 50.1265C54.027 50.1265 50.5859 50.3559 48.0623 53.1088C47.6035 53.5676 47.3741 53.9118 46.8006 54.4853C47.6035 51.9618 48.2917 49.3235 48.98 46.8H49.2094C49.2094 46.4559 49.3241 45.9971 49.3241 45.6529C50.7006 46.6853 53.4535 45.5382 54.7153 44.3912C56.0917 43.1294 55.5182 41.7529 54.2564 41.6382C53.1094 41.5235 51.2741 42.6706 50.2417 43.3588C50.0123 43.4735 49.7829 43.7029 49.5535 43.9324C50.2417 41.5235 50.8153 39 51.3888 36.7059C53.4535 37.5088 57.8123 35.9029 57.2388 33.9529C57.1241 33.4941 56.6653 33.15 56.2064 33.0353C55.0594 32.8059 52.88 33.6088 51.9623 34.1823C52.4212 32.2323 52.7653 30.9706 53.4535 28.3323C54.83 28.9059 57.0094 28.3323 58.3859 27.5294C59.9917 26.4971 59.6476 25.1206 58.3859 24.7765C57.2388 24.5471 55.0594 25.35 54.027 25.9235C54.2564 25.0059 54.4859 24.2029 54.7153 23.4C55.977 23.4 56.8947 22.1382 57.4682 21.1059C59.4182 18.1235 57.8123 15.0265 55.7476 15.0265C54.9447 15.0265 54.2564 15.3706 53.7976 16.0588C52.7653 17.3206 52.077 21.1059 53.2241 22.5971C53.1094 22.8265 53.2241 22.4823 52.3064 26.2676C52.3064 25.9235 52.3064 25.4647 52.1917 25.1206C52.077 23.9735 51.6182 22.9412 50.8153 22.1382C50.4711 21.7941 50.127 21.5647 49.6682 21.6794C47.9476 22.1382 50.0123 27.1853 52.077 27.1853C51.2741 30.6265 50.8153 32.3471 50.2417 34.8706C50.127 33.9529 50.3564 32.1176 48.7506 30.5118C48.4064 30.1676 48.0623 29.9382 47.6035 30.0529C45.8829 30.5118 48.0623 35.5588 50.127 35.5588C49.5535 37.9676 48.8653 40.4912 48.177 43.0147C47.8329 41.6382 46.5712 40.1471 45.5388 39.9176C45.8829 37.9676 45.8829 36.4765 46.3417 34.9853C46.5712 34.1823 45.7682 33.4941 45.08 33.9529C42.6712 35.5588 40.2623 37.1647 38.5417 39.5735C38.8859 34.7559 39.4594 30.0529 40.6064 25.2353C41.9829 25.9235 44.277 25.35 45.6535 24.4323C47.2594 23.4 46.9153 22.0235 45.6535 21.6794C44.5064 21.45 42.0976 22.3676 41.18 22.9412C41.6388 21.3353 42.0976 19.7294 42.5564 18.2382C43.8182 19.3853 46.5712 18.6971 48.0623 17.7794C49.6682 16.7471 49.3241 15.3706 48.0623 15.0265C47.03 14.7971 44.9653 15.4853 43.8182 16.0588C43.5888 16.1735 43.3594 16.4029 43.0153 16.6323C43.5888 15.1412 44.1623 13.65 44.8506 12.1588C46.227 13.0765 48.7506 12.3882 50.127 11.4706C51.7329 10.4382 51.3888 9.06176 50.127 8.71764C48.98 8.48823 47.03 9.17646 45.9976 9.74999C46.3417 9.06176 46.8006 8.37352 47.1447 7.68529C47.4888 7.68529 47.8329 7.45587 47.9476 7.34117C49.4388 6.42352 50.5859 5.73529 51.2741 4.81764C51.9623 3.78529 51.9623 2.52352 51.3888 1.72058C50.2417 0.229403 47.6035 0.573521 46.5711 3.09705C45.8829 4.93234 45.7682 5.9647 45.7682 6.53823C45.08 7.57058 44.5064 8.71764 43.9329 9.8647C43.9329 9.52058 43.9329 9.17646 43.9329 8.83235C43.8182 7.68529 43.3594 6.65293 42.5564 5.84999C42.2123 5.50587 41.8682 5.27646 41.4094 5.39117C39.8035 5.84999 41.5241 10.3235 43.5888 10.8971C42.9006 12.2735 42.327 13.65 41.7535 15.0265C41.6388 13.9941 41.18 12.8471 40.377 12.1588C39.3447 11.1265 38.427 11.8147 38.5417 13.1912C38.7712 14.4529 39.6888 16.4029 40.9506 16.9765C40.2623 18.8118 39.6888 20.6471 39.23 22.5971C39.23 22.3676 39.23 22.1382 39.23 21.7941C39.1153 20.6471 38.6564 19.6147 37.8535 18.8118C36.8212 17.7794 35.9035 18.4676 36.0182 19.8441C36.2476 21.3353 37.5094 23.5147 38.8859 23.8588C37.3947 30.0529 36.7064 35.9029 36.3623 42.0971C35.7888 41.6382 35.2153 41.1794 34.6417 40.6059C33.7241 36.8206 32.6917 33.15 31.5447 29.5941C33.6094 29.0206 35.7888 24.0882 34.0682 23.4C32.577 22.7118 31.2006 25.8088 30.7417 27.4147C30.2829 25.9235 29.7094 24.5471 29.1359 23.1706C31.3153 22.4823 32.8064 17.2059 30.8564 16.5176C30.3976 16.4029 29.9388 16.5176 29.48 16.8618C28.677 17.55 28.2182 19.5 27.9888 20.5323C27.53 19.3853 26.9564 18.2382 26.3829 17.0912C28.4476 16.1735 29.8241 11.2412 27.8741 10.5529C27.4153 10.4382 26.9564 10.5529 26.4976 10.8971C25.6947 11.5853 25.1212 13.5353 25.0064 14.6823C24.777 14.2235 24.4329 13.65 24.2035 13.1912C24.3182 12.3882 24.2035 11.4706 24.2035 10.7823C24.0888 9.52058 23.8594 8.48823 23.2859 7.79999C22.4829 6.76764 21.1064 6.30882 19.9594 6.65293C18.6976 7.11176 18.0094 8.48823 18.2388 9.8647C18.3535 10.8971 19.0417 11.9294 20.0741 12.7323C20.7623 13.1912 21.9094 13.8794 22.827 14.1088C23.2859 15.0265 23.8594 15.9441 24.3182 16.8618C23.63 16.4029 22.2535 15.2559 19.9594 15.6C19.5006 15.7147 19.0417 15.8294 18.927 16.2882C18.3535 17.8941 23.1712 19.0412 24.6623 17.6647C25.4653 19.2706 26.2682 20.9912 27.0712 22.8265C26.727 22.5971 26.4976 22.3676 26.1535 22.2529C25.1212 21.6794 23.9741 21.45 22.9417 21.6794C21.4506 21.9088 21.5653 23.0559 22.7123 23.7441C23.8594 24.3176 26.2682 24.6618 27.53 23.7441C28.2182 25.4647 28.9064 27.3 29.5947 29.1353C29.3653 29.0206 29.1359 28.7912 29.0212 28.6765C28.2182 28.1029 27.1859 27.8735 26.0388 27.9882C25.58 27.9882 25.1212 28.2176 24.8917 28.5618C24.0888 30.0529 28.2182 31.3147 29.9388 30.1676C30.8564 32.8059 31.5447 35.4441 32.2329 38.0824C30.7417 36.1324 29.48 33.9529 28.3329 31.7735C27.9888 32.1176 28.1035 32.8059 28.3329 33.6088C28.1035 33.2647 27.7594 32.8059 27.53 32.4618C27.7594 35.5588 30.8564 39.5735 33.2653 41.9823C33.4947 43.0147 33.7241 43.9324 33.9535 44.9647C27.53 36.7059 20.3035 38.5412 16.5182 36.3618C15.6006 35.7882 14.5682 36.8206 15.1417 37.7382C18.1241 42.7853 21.4506 46.3412 25.1212 48.2912C28.5623 50.1265 32.6917 50.5853 34.8712 50.0118C35.4447 53.4529 35.9035 56.7794 36.2476 60.1059V61.7118C35.5594 60.6794 34.8712 59.8765 34.0682 59.0735C30.8564 54.9441 27.53 54.0265 22.9417 53.1088ZM59.5329 63.5471C56.4359 65.9559 53.9123 69.9706 43.2447 69.6265C46.4564 66.7588 47.7182 61.9412 59.5329 63.5471ZM59.0741 51.8471C56.8947 53.6824 54.9447 56.2059 47.4888 55.9765C47.9476 55.7471 50.93 50.8147 59.0741 51.8471ZM50.127 3.67058C49.7829 4.24411 49.0947 4.58823 47.9476 5.39117C48.0623 4.93234 48.2917 4.24411 48.5212 3.55587C49.2094 1.72058 51.0447 2.40882 50.127 3.67058ZM26.2682 46.4559C23.4006 44.85 20.6476 42.0971 18.1241 38.3118C19.3859 38.6559 20.6476 38.8853 20.9917 39C27.4153 40.2618 30.0535 41.4088 34.7564 48.0618C32.2329 48.4059 29.0212 47.9471 26.2682 46.4559ZM38.6564 44.9647C39.23 45.1941 39.8035 45.3088 40.377 45.5382C39.8035 46.1118 39.23 46.6853 38.6564 47.1441C38.6564 46.4559 38.6564 46.1118 38.6564 44.9647ZM39.0006 71.2324C38.8859 59.4176 38.0829 65.4971 38.3123 49.5529C39.9182 48.2912 41.2947 47.0294 42.327 45.7676C42.9006 45.8824 44.3917 46.4559 47.1447 46.5706C44.8506 55.2882 42.0976 63.8912 39.0006 71.2324ZM54.9447 17.8941C55.7476 15.0265 57.927 17.4353 56.3212 19.9588C55.4035 21.45 54.9447 21.45 54.83 21.45C54.4859 21.1059 54.4859 19.5 54.9447 17.8941ZM47.7182 44.6206C46.3417 44.6206 44.8506 44.6206 43.4741 44.3912C44.0476 43.5882 44.5064 42.6706 44.9653 41.7529C45.5388 42.9 46.5711 44.2765 47.7182 44.6206ZM44.3917 36.2471C44.0476 38.8853 44.1623 40.7206 41.7535 43.9324C40.7212 43.7029 39.8035 43.3588 38.8859 42.9C39.5741 39.9176 41.8682 37.9676 44.3917 36.2471ZM20.4182 9.40587C20.3035 8.83235 20.6476 8.25882 21.1064 8.0294C21.5653 7.9147 22.1388 8.14411 22.4829 8.60293C23.1712 9.40587 23.1712 10.7823 23.1712 11.9294C22.5976 11.7 22.0241 11.3559 21.68 11.0118C20.9917 10.5529 20.5329 9.9794 20.4182 9.40587ZM36.7064 44.0471C36.7064 45.1941 36.5917 46.4559 36.5917 47.7176C36.3623 46.3412 36.0182 44.9647 35.7888 43.5882C36.1329 43.7029 36.1329 43.8176 36.7064 44.0471ZM36.2476 63.8912C33.8388 64.2353 30.627 63.6618 27.8741 62.2853C24.2035 60.3353 21.4506 56.8941 19.6153 54.1412C20.3035 54.3706 20.9917 54.4853 22.0241 54.7147C27.7594 55.8618 31.43 56.7794 35.7888 63.3176C35.9035 63.3176 36.1329 63.6618 36.2476 63.8912Z" fill="#A89C81"/>
</svg>

<svg xmlns="http://www.w3.org/2000/svg" width="78" height="78" fill="none"><path fill="#A89C81" d="m22.942 53.109-.46-.115c-3.096-.688-4.128-1.262-4.243-1.491-.23-.459-.803-.574-1.147-.344-.46.23-.574.803-.344 1.147 1.605 2.982 5.161 8.603 10.438 11.47 3.441 1.836 7.341 2.295 9.635 1.836.115 3.9.23 7.685.459 11.012 0 .458.459.803.803.803a.784.784 0 0 0 .803-.803V75.59c.23-.459 1.606-3.441 1.95-4.244 5.276.459 11.241.115 15.6-2.868.917-.688 1.72-1.376 2.638-2.064 1.032-.918 1.95-1.836 3.097-2.41.344-.228.459-.573.459-.917-.115-.344-.344-.688-.688-.688-3.097-.459-6.194-.918-9.52-.459-3.098.459-5.85 1.835-7.8 3.785-.919 1.033-1.721 2.065-2.64 2.868a131.723 131.723 0 0 0 3.786-10.782c11.127.917 12.733-3.785 15.944-5.62.689-.345.574-1.492-.23-1.607-2.408-.344-4.817-.803-7.34-.459-.115 0-3.556.23-6.08 2.983-.459.459-.688.803-1.261 1.376.802-2.523 1.49-5.161 2.179-7.685h.23c0-.344.114-.803.114-1.147 1.377 1.032 4.13-.115 5.391-1.262 1.377-1.262.803-2.638-.459-2.753-1.147-.114-2.982 1.033-4.014 1.72-.23.116-.46.345-.688.574.688-2.409 1.261-4.932 1.835-7.226 2.064.803 6.423-.803 5.85-2.753-.115-.459-.574-.803-1.033-.918-1.147-.23-3.326.574-4.244 1.147.46-1.95.803-3.211 1.491-5.85 1.377.574 3.556 0 4.933-.803 1.606-1.032 1.262-2.408 0-2.753-1.147-.229-3.327.574-4.359 1.148.23-.918.459-1.721.688-2.524 1.262 0 2.18-1.262 2.753-2.294 1.95-2.983.344-6.08-1.72-6.08-.803 0-1.492.345-1.95 1.033-1.033 1.262-1.721 5.047-.574 6.538-.115.23 0-.115-.918 3.67 0-.343 0-.802-.114-1.146-.115-1.147-.574-2.18-1.377-2.983-.344-.344-.688-.573-1.147-.459-1.72.46.344 5.506 2.409 5.506-.803 3.442-1.262 5.162-1.835 7.686-.115-.918.114-2.753-1.491-4.36-.345-.343-.689-.573-1.148-.458-1.72.459.46 5.506 2.524 5.506-.574 2.409-1.262 4.932-1.95 7.456-.344-1.377-1.606-2.868-2.638-3.097.344-1.95.344-3.441.803-4.933.23-.803-.574-1.49-1.262-1.032-2.409 1.606-4.818 3.212-6.538 5.62.344-4.817.917-9.52 2.064-14.338 1.377.689 3.671.115 5.047-.803 1.606-1.032 1.262-2.409 0-2.753-1.147-.229-3.555.689-4.473 1.262.459-1.606.918-3.212 1.376-4.703 1.262 1.147 4.015.46 5.506-.459 1.606-1.032 1.262-2.408 0-2.752-1.032-.23-3.097.458-4.244 1.032-.23.114-.459.344-.803.573.574-1.49 1.147-2.982 1.836-4.473 1.376.917 3.9.23 5.276-.688 1.606-1.033 1.262-2.41 0-2.753-1.147-.23-3.097.458-4.13 1.032.345-.688.804-1.376 1.148-2.065.344 0 .688-.23.803-.344 1.49-.917 2.638-1.606 3.326-2.523.688-1.033.688-2.294.115-3.097C50.242.229 47.603.574 46.57 3.097c-.688 1.835-.803 2.868-.803 3.441-.688 1.033-1.262 2.18-1.835 3.327V8.832c-.115-1.147-.574-2.18-1.377-2.982-.344-.344-.688-.574-1.147-.459-1.605.459.115 4.932 2.18 5.506-.688 1.377-1.262 2.753-1.835 4.13-.115-1.033-.574-2.18-1.377-2.868-1.032-1.033-1.95-.344-1.835 1.032.23 1.262 1.147 3.212 2.409 3.786a45.565 45.565 0 0 0-1.721 5.62v-.803c-.115-1.147-.574-2.18-1.377-2.982-1.032-1.033-1.95-.344-1.835 1.032.23 1.491 1.491 3.67 2.868 4.015-1.491 6.194-2.18 12.044-2.524 18.238-.573-.459-1.147-.918-1.72-1.491a154.193 154.193 0 0 0-3.097-11.012c2.064-.573 4.244-5.506 2.523-6.194-1.491-.688-2.867 2.409-3.326 4.015-.46-1.491-1.033-2.868-1.606-4.244 2.18-.689 3.67-5.965 1.72-6.653-.458-.115-.917 0-1.376.344-.803.688-1.262 2.638-1.491 3.67-.459-1.147-1.033-2.294-1.606-3.44 2.065-.918 3.441-5.85 1.491-6.54-.459-.114-.918 0-1.376.345-.803.688-1.377 2.638-1.492 3.785-.229-.459-.573-1.032-.803-1.49.115-.804 0-1.721 0-2.41-.114-1.261-.344-2.294-.917-2.982-.803-1.032-2.18-1.491-3.327-1.147-1.261.459-1.95 1.835-1.72 3.212.114 1.032.803 2.064 1.835 2.867.688.46 1.835 1.147 2.753 1.377.459.918 1.032 1.835 1.491 2.753-.688-.46-2.065-1.606-4.359-1.262-.458.115-.917.23-1.032.688-.573 1.606 4.244 2.753 5.735 1.377a111.423 111.423 0 0 1 2.41 5.162c-.345-.23-.574-.46-.918-.574-1.033-.574-2.18-.803-3.212-.574-1.491.23-1.377 1.377-.23 2.065 1.147.574 3.556.918 4.818 0 .688 1.72 1.376 3.556 2.065 5.391-.23-.114-.46-.344-.574-.459-.803-.573-1.835-.802-2.982-.688-.459 0-.918.23-1.147.574-.803 1.49 3.326 2.753 5.047 1.606.917 2.638 1.606 5.276 2.294 7.914-1.491-1.95-2.753-4.13-3.9-6.309-.344.345-.23 1.033 0 1.836-.23-.344-.574-.803-.803-1.147.23 3.097 3.326 7.111 5.735 9.52.23 1.033.46 1.95.688 2.983-6.423-8.26-13.65-6.424-17.435-8.603-.917-.574-1.95.459-1.376 1.376 2.982 5.047 6.309 8.603 9.98 10.553 3.44 1.836 7.57 2.294 9.75 1.72a163.35 163.35 0 0 1 1.376 10.095v1.606a16.674 16.674 0 0 0-2.18-2.639c-3.212-4.129-6.538-5.047-11.126-5.964Zm36.59 10.438c-3.096 2.409-5.62 6.424-16.287 6.08 3.211-2.868 4.473-7.686 16.288-6.08Zm-.458-11.7c-2.18 1.835-4.13 4.359-11.585 4.13.459-.23 3.441-5.162 11.585-4.13ZM50.127 3.671c-.344.573-1.032.917-2.18 1.72.115-.459.345-1.147.574-1.835.688-1.835 2.524-1.147 1.606.115ZM26.268 46.456c-2.867-1.606-5.62-4.359-8.144-8.144 1.262.344 2.524.573 2.868.688 6.423 1.262 9.061 2.409 13.764 9.062-2.523.344-5.735-.115-8.488-1.606Zm12.388-1.491c.574.23 1.148.344 1.721.573-.574.574-1.147 1.147-1.72 1.606v-2.18Zm.345 26.267c-.115-11.814-.918-5.735-.689-21.68 1.606-1.26 2.983-2.523 4.015-3.784.574.114 2.065.688 4.818.803C44.85 55.288 42.098 63.89 39 71.232Zm15.944-53.338c.803-2.867 2.982-.459 1.376 2.065-.917 1.491-1.376 1.491-1.491 1.491-.344-.344-.344-1.95.115-3.556Zm-7.227 26.727c-1.376 0-2.867 0-4.244-.23.574-.803 1.032-1.72 1.491-2.638.574 1.147 1.606 2.523 2.753 2.868Zm-3.326-8.374c-.344 2.638-.23 4.474-2.639 7.685a12.209 12.209 0 0 1-2.867-1.032c.688-2.982 2.982-4.932 5.506-6.653ZM20.418 9.406c-.114-.574.23-1.147.688-1.377.46-.114 1.033.115 1.377.574.688.803.688 2.18.688 3.326-.573-.229-1.147-.573-1.491-.917-.688-.46-1.147-1.033-1.262-1.606Zm16.288 34.641c0 1.147-.114 2.409-.114 3.67-.23-1.376-.574-2.752-.803-4.129.344.115.344.23.917.46Zm-.458 19.844c-2.41.344-5.621-.23-8.374-1.606-3.67-1.95-6.423-5.39-8.259-8.144.689.23 1.377.344 2.41.574 5.734 1.147 9.405 2.064 13.764 8.603.114 0 .344.344.459.573Z"/></svg>
